!!!OTL: IM SOMMER IST GUT WANDERN
!!!ARE: Europa, Mitteleuropa, Deutschland; Oesterreich, Boehmen
!!!SCT: E0584A
!!!YEM: Copyright 1995, estate of Helmut Schaffrath.
**kern
*ICvox
*Ivox
*M6/8
*k[b-e-]
*B-:
{8f
=1
4b-
8cc
8dd
8cc
8b-
=2
8cc
8dd
8ee-
8dd
8r}
{8ee-
=3
4dd
8cc
4b-
8dd
=4
16cc
16b-
8a
8g
4f}
{8b-
=5
8cc
8b-
8cc
8cc
8b-
8cc
=6
4cc
8gg
4ff}
{8dd
=7
4ee-
8dd
4cc
8b-
=8
8f
8g
8a
4b-}
{8dd
=9
4ee-
8dd
4cc
8b-
=10
16dd
16cc
8b-
8a
4b-}
==
!!!AGN: Liebes - Lied
!!!ONB: ESAC (Essen Associative Code) Database: ERK1
!!!AMT: compound duple
!!!AIN: vox
!!!EED: Helmut Schaffrath
!!!EEV: 1.0
*-
